X:2
T:
T:Theme
M:3/4
L:1/8
K:C
%1
"Andante"z2 G > F EG e3-d | c-E G3 c | BDFGBd | cE G3-F |
%2
EG e3-d | cE G3 c | BDFGBd | c4 z e | dc A3 ^F | GB d3 d | edcD^FA |
%3
GB g3e | dc A3 ^F | GB d3 d | edcD^FA | G4 G>F | EG e3 d | cE G3 c |
%4
BDFGBd | cEG3 F | EG e3 d | cEG3 c | BdfGBd | c4 |]

